lib/brands/icons/discord.svg

<svg xmlns="http://www.w3.org/2000/svg" fill="none" aria-hidden="true" viewBox="0 0 48 48"><g id="discord-Icon"><path id="Vector" fill="#5865F2" d="M36.4955 13.1018C34.165 12.0774 31.6733 11.333 29.0684 10.9091C28.7483 11.4525 28.3746 12.1834 28.117 12.7649C25.3477 12.3736 22.6039 12.3736 19.8857 12.7649C19.6281 12.1834 19.2458 11.4525 18.9231 10.9091C16.3152 11.333 13.8206 12.0802 11.4903 13.1072C6.78997 19.7804 5.51578 26.2878 6.15287 32.7028C9.27038 34.8901 12.2916 36.2187 15.2619 37.0882C15.9952 36.14 16.6493 35.132 17.2128 34.0695C16.1396 33.6864 15.1118 33.2137 14.1406 32.6648C14.3983 32.4855 14.6503 32.298 14.8938 32.1051C20.8174 34.708 27.2533 34.708 33.1062 32.1051C33.3524 32.298 33.6045 32.4855 33.8593 32.6648C32.8852 33.2163 31.8546 33.6891 30.7814 34.0722C31.3449 35.132 31.9961 36.1427 32.7323 37.0909C35.7054 36.2214 38.7295 34.8928 41.847 32.7028C42.5946 25.2662 40.57 18.8185 36.4955 13.1018ZM18.0198 28.7577C16.2416 28.7577 14.7833 27.198 14.7833 25.2988C14.7833 23.3995 16.2104 21.8373 18.0198 21.8373C19.8291 21.8373 21.2873 23.3968 21.2562 25.2988C21.2591 27.198 19.8291 28.7577 18.0198 28.7577ZM29.9801 28.7577C28.2019 28.7577 26.7436 27.198 26.7436 25.2988C26.7436 23.3995 28.1708 21.8373 29.9801 21.8373C31.7894 21.8373 33.2477 23.3968 33.2165 25.2988C33.2165 27.198 31.7894 28.7577 29.9801 28.7577Z"/></g></svg>

<svg xmlns="http://www.w3.org/2000/svg" fill="none" aria-hidden="true" viewBox="0 0 48 48"><path fill="#5865F2" d="M36.495 13.102a30.703 30.703 0 0 0-7.427-2.193c-.32.543-.693 1.274-.951 1.856a29.005 29.005 0 0 0-8.231 0 19.353 19.353 0 0 0-.963-1.856 30.599 30.599 0 0 0-7.433 2.198c-4.7 6.673-5.974 13.18-5.337 19.596a30.453 30.453 0 0 0 9.109 4.385 21.08 21.08 0 0 0 1.95-3.019 19.724 19.724 0 0 1-3.071-1.404c.257-.18.51-.367.753-.56 5.923 2.603 12.36 2.603 18.212 0 .246.193.498.38.753.56a19.68 19.68 0 0 1-3.078 1.407 20.98 20.98 0 0 0 1.951 3.019 30.393 30.393 0 0 0 9.115-4.388c.748-7.437-1.277-13.885-5.352-19.601ZM18.02 28.758c-1.778 0-3.237-1.56-3.237-3.46 0-1.898 1.427-3.46 3.237-3.46s3.267 1.559 3.236 3.46c.003 1.9-1.427 3.46-3.236 3.46Zm11.96 0c-1.778 0-3.236-1.56-3.236-3.46 0-1.898 1.427-3.46 3.236-3.46 1.81 0 3.268 1.559 3.237 3.46 0 1.9-1.428 3.46-3.237 3.46Z"/></svg>
